packages/icons/svg/Fill/arrow-circle-left.svg

<svg fill="none" height="24" viewBox="0 0 24 24" width="24" xmlns="http://www.w3.org/2000/svg"><path clip-rule="evenodd" d="m10.1387 15.6905-2.86199-3c-.043-.045-.064-.101-.097-.151-.036-.054-.079-.102-.104-.162-.049-.121-.076-.249-.076-.377 0-.131.027-.261.077-.383.051-.122.124-.233.217-.325l2.99899-2.99901c.391-.391 1.024-.391 1.414 0 .391.39.391 1.023 0 1.414l-1.293 1.29301h5.586c.553 0 1 .447 1 1 0 .552-.447 1-1 1h-5.663l1.249 1.309c.381.4.367 1.032-.033 1.414s-1.033.366-1.414-.033zm11.861-3.69c0-5.51501-4.486-10.00001-10-10.00001-5.51401 0-10.00001 4.485-10.00001 10.00001 0 5.514 4.486 10 10.00001 10 5.514 0 10-4.486 10-10z" fill="#6b7280" fill-rule="evenodd"/></svg>

<svg width="24" height="24" viewBox="0 0 24 24" fill="none" xmlns="http://www.w3.org/2000/svg">
<g id="Icon/Fill/arrow-circle-left">
<path id="Mask" fill-rule="evenodd" clip-rule="evenodd" d="M10.1388 15.6904L7.27676 12.6904C7.23376 12.6454 7.21276 12.5894 7.17976 12.5394C7.14376 12.4854 7.10076 12.4374 7.07576 12.3774C7.02676 12.2564 6.99976 12.1284 6.99976 12.0004C6.99976 11.8694 7.02676 11.7394 7.07676 11.6174C7.12776 11.4954 7.20076 11.3844 7.29376 11.2924L10.2928 8.29343C10.6838 7.90243 11.3168 7.90243 11.7068 8.29343C12.0978 8.68343 12.0978 9.31643 11.7068 9.70743L10.4138 11.0004H15.9998C16.5528 11.0004 16.9998 11.4474 16.9998 12.0004C16.9998 12.5524 16.5528 13.0004 15.9998 13.0004H10.3368L11.5858 14.3094C11.9668 14.7094 11.9528 15.3414 11.5528 15.7234C11.1528 16.1054 10.5198 16.0894 10.1388 15.6904ZM21.9998 12.0004C21.9998 6.48543 17.5138 2.00043 11.9998 2.00043C6.48576 2.00043 1.99976 6.48543 1.99976 12.0004C1.99976 17.5144 6.48576 22.0004 11.9998 22.0004C17.5138 22.0004 21.9998 17.5144 21.9998 12.0004Z" fill="#000000"/>
</g>
</svg>
